svgs/solid/square-list.svg

<svg xmlns="http://www.w3.org/2000/svg" viewBox="0 0 448 512"><!--! Font Awesome Pro 6.2.0 by @fontawesome - https://fontawesome.com License - https://fontawesome.com/license (Commercial License) Copyright 2022 Fonticons, Inc. --><path d="M0 96C0 60.7 28.7 32 64 32H384c35.3 0 64 28.7 64 64V416c0 35.3-28.7 64-64 64H64c-35.3 0-64-28.7-64-64V96zM96 288c17.7 0 32-14.3 32-32s-14.3-32-32-32s-32 14.3-32 32s14.3 32 32 32zm32-128c0-17.7-14.3-32-32-32s-32 14.3-32 32s14.3 32 32 32s32-14.3 32-32zM96 384c17.7 0 32-14.3 32-32s-14.3-32-32-32s-32 14.3-32 32s14.3 32 32 32zm96-248c-13.3 0-24 10.7-24 24s10.7 24 24 24H352c13.3 0 24-10.7 24-24s-10.7-24-24-24H192zm0 96c-13.3 0-24 10.7-24 24s10.7 24 24 24H352c13.3 0 24-10.7 24-24s-10.7-24-24-24H192zm0 96c-13.3 0-24 10.7-24 24s10.7 24 24 24H352c13.3 0 24-10.7 24-24s-10.7-24-24-24H192z"/></svg>

<svg xmlns="http://www.w3.org/2000/svg" viewBox="0 0 448 512"><!--! Font Awesome Pro 6.1.2 by @fontawesome - https://fontawesome.com License - https://fontawesome.com/license (Commercial License) Copyright 2022 Fonticons, Inc. --><path d="M0 96C0 60.65 28.65 32 64 32H384C419.3 32 448 60.65 448 96V416C448 451.3 419.3 480 384 480H64C28.65 480 0 451.3 0 416V96zM128 256C128 238.3 113.7 224 96 224C78.33 224 64 238.3 64 256C64 273.7 78.33 288 96 288C113.7 288 128 273.7 128 256zM128 160C128 142.3 113.7 128 96 128C78.33 128 64 142.3 64 160C64 177.7 78.33 192 96 192C113.7 192 128 177.7 128 160zM128 352C128 334.3 113.7 320 96 320C78.33 320 64 334.3 64 352C64 369.7 78.33 384 96 384C113.7 384 128 369.7 128 352zM192 136C178.7 136 168 146.7 168 160C168 173.3 178.7 184 192 184H352C365.3 184 376 173.3 376 160C376 146.7 365.3 136 352 136H192zM192 232C178.7 232 168 242.7 168 256C168 269.3 178.7 280 192 280H352C365.3 280 376 269.3 376 256C376 242.7 365.3 232 352 232H192zM192 328C178.7 328 168 338.7 168 352C168 365.3 178.7 376 192 376H352C365.3 376 376 365.3 376 352C376 338.7 365.3 328 352 328H192z"/></svg>
